!!!OTL: Die Mordeltern Es war'n einmal zwei Bauernsoehn',
!!!ARE: Europa, Mitteleuropa, Deutschland (BRD), Schleswig Holstein, Ostholstein
!!!YOR: 4, S. 310
!!    1905 gedruckt
!!!SCT: Q0085X
!!!YEM: Copyright 1995, estate of Helmut Schaffrath.
**kern
*ICvox
*Ivox
*M3/4
*k[f#]
*G:
{8d
8g
8d
=1
4B
4g
8.g
16g
=2
4f#
8r}
{8d
8d
8f#
=3
4a
8a
8g
8f#
8e
=4
8.d
16e}
{8d
8c
8B
8c
=5
4d
4d
8.e
16f#
=6
4g
8r}
{8g
8g
8a
=7
4b
4b
8.a
16f#
=8
4g
8r}
==
!!!AGN: Ballade, Habgier, Mord, Reue, Selbstmord
!!!ONB: ESAC (Essen Associative Code) Database: BALLADE
!!!AMT: simple triple
!!!AIN: vox
!!!EED: Helmut Schaffrath
!!!EEV: 1.0
*-
